symbols/web/chalet/materialsymbolsoutlined/chalet_wght700grad200fill1_20px.svg

<svg xmlns="http://www.w3.org/2000/svg" height="20" width="20"><path d="M14.438 9.917V8.792l-.584.583-.937-.937 1.521-1.521v-.521h-.5l-1.542 1.521-.938-.938.604-.583h-1.124V5.042h1.124l-.604-.584.938-.958 1.542 1.521h.5v-.5L12.917 3l.937-.938.584.563V1.5h1.354v1.125l.604-.563.937.938-1.541 1.521v.521h.52l1.542-1.521.938.937-.584.584h1.125v1.354h-1.125l.584.583-.938.938-1.542-1.521h-.52v.521l1.541 1.521-.937.937-.604-.583v1.125ZM3.583 17.25v-3.417L3 14.417l-1.833-1.813 7.166-7.166 7.167 7.166-1.833 1.834-.584-.584v3.396H9.625v-5.104H7.042v5.104Z"/></svg>

<svg xmlns="http://www.w3.org/2000/svg" height="20" width="20"><path d="M14.438 9.917V8.792L13.854 9.375L12.917 8.438L14.438 6.917V6.396H13.938L12.396 7.917L11.458 6.979L12.062 6.396H10.938V5.042H12.062L11.458 4.458L12.396 3.5L13.938 5.021H14.438V4.521L12.917 3L13.854 2.062L14.438 2.625V1.5H15.792V2.625L16.396 2.062L17.333 3L15.792 4.521V5.042H16.312L17.854 3.521L18.792 4.458L18.208 5.042H19.333V6.396H18.208L18.792 6.979L17.854 7.917L16.312 6.396H15.792V6.917L17.333 8.438L16.396 9.375L15.792 8.792V9.917ZM3.583 17.25V13.833L3 14.417L1.167 12.604L8.333 5.438L15.5 12.604L13.667 14.438L13.083 13.854V17.25H9.625V12.146H7.042V17.25Z"/></svg>
